X:1
T:LA PORTE DES BOHATYRS DE KIEW
T:LA PORTE DES BOHATYRS DE KIEW
%%score { ( 1 4 6 ) | ( 2 5 7 ) | 3 }
L:1/8
Q:1/2=84
M:2/2
K:Eb
V:1 treble nm="Piano" snm="Pno."
V:4 treble 
V:6 treble 
V:2 bass 
V:5 bass 
V:7 bass 
V:3 bass 
V:1
"^Allegro alla breve \n\nMaestoso. Con grandezza\n"!f! [EGBe]8 | [FBdf]8 | %2
 [GBeg]4 ([EGce]2 [Gg]2) | [FBdf]4 [B,B]4 | ([GBeg]2 [Bb]2 [Ff]2 [Ee]2) | [DBd]4 [B,GB]4 | %6
 ([GBeg]2 [Bb]2 [Ff]2 [Ee]2) | [DBd]4 [B,GB]4 | [EGBe]8 | [FBdf]8 | [GBeg]4 ([EGce]2 [Gg]2) | %11
 [FBdf]4 [B,B]4 | [ee']2 [ee']2 ([dd']2 [Bb]2 | [cc']2) [cc']2 [Aa]2 [cc']2 | e6 z2 |!mf! [FAcf]8 | %16
 ([Bdfb]4 [cegc']4) |!f! [Ee]2 [Ee]2 ([Dd]2 [Cc]2) | [B,B]4 [A,A]2 [G,G]2 | [F,CEF]8 | %20
"_cresc." [B,DGB]8 |!ff! [EGBe]8 | [FBdf]8 | [GBeg]4 ([EGce]2 [Gg]2) | [FBdf]4 [B,B]4 | %25
 ([GBeg]2 [Bb]2 [Ff]2 [Ee]2) | [DBd]4 [B,GB]4 | ([GBeg]2 [Bb]2 [Ff]2 [Ee]2) | [DBd]4 [B,GB]4 | %29
!p!"^senza" [_CEA]8 |"^espressione" ([_CE]4 [CE]4 | [_D_F]4 [E_G]4 | [_FA]8 | [E_G]8) | %34
!<(! ([_FA]4 [_G__B]4!<)! | [A_c]4 [Ac]4 | [_G__B]4 [A_c]4 | [__B_d]8 | [_G__e]4 [__B_d]4 | %39
!>(! [A_c]8)!>)! | ([_F_d]4 [A_c]4 | [_F__B]4"_dim." [FA]4 | [E_G]8 | [_D_F]8 | [A,E]8) | %45
 [A,E]4 [A,E]4 |!f!!8va(! [g'g''][f'f''][e'e''][d'd''] [c'c''][bb'][aa'][gg']!8va)! | %47
 [ff'][ee'][dd'][cc'] [Bb][Aa][Gg][Ff] | [Ee][Dd][Cc][B,B] [A,A][G,G][F,F][E,E] | %49
[K:bass] [D,D][C,C][B,,B,][A,,A,] [G,,G,][F,,F,][E,,E,][D,,D,] | E,F,G,A, B,CDE | %51
[K:treble] [F,F][G,G][A,A][B,B] [Cc][Dd][Ee][Ff] | [Gg][Aa][Bb][cc']!8va(! [dd'][ee'][ff'][gg'] | %53
 [ff'][ee'][dd'][cc']!8va)! [Bb][Aa][Gg][Ff] | [EGBe]8 | [FBdf]8 | ([GBeg]4 [EGce]2 [Gceg]2 | %57
 [FBdf]4 [B,B]4) | [ee']2 [ee']2 ([dd']2 [Bb]2 | [cc']2) [cc']2 [Aa]2 [cc']2 | %60
 [Bdgb]4 [Aa]2 [Gg]2 | [Fcef]8 | [Bdfb]3 z z4 |!ff! [_GB]8 | %64
"_sempre con espressione" ([_GB]4 [GB]4 | [A_c]4 [B_d]4 | [_ce]8 | [B_d]8) | ([_ce]4 [_d_f]4 | %69
!<(! [e_g]4 [eg]4 | [_d_f]4 [e_g]4!<)! | [_fa]8 | [_d__b]4 [_fa]4 | [e_g]8) | %74
!>(! ([_ca]4 [e_g]4!>)! | [_c_f]4 [ce]4 |"_dim." [B_d]8 | [A_c]8 | [EB]8) | [EB]4 [EB]4 | %80
!mf! !^![F,E]8 | !^![_F,E]8 | !^![=F,E]8 | !^![_F,E]8 | (3[Ae=f]2 F2 [Aef]2 (3F2 [Aef]2 F2 | %85
 (3[A_ce]2 _F2 [Ace]2 (3F2 [Ace]2 F2 | (3[Ae=f]2 =F2 [Aef]2 (3F2 [Aef]2 F2 | %87
 (3[A_ce]2 _F2 [Ace]2 (3F2 [Ace]2 F2 |[M:2/2]!8va(! [e''f'']f' [e'f']f[e'f']f' [e''f'']f' | %89
 [_c''e'']_f' [_c'e']_f[c'e']f' [c''e'']f' | [e''f'']f' [e'f']f[e'f']f' [e''f'']f' | %91
 [_c''e'']_f' [_c'e']_f[c'e']f' [c''e'']f' |"_cresc." [a'c''e'']f' [ac'e']f[ac'e']f' [a'c''e'']f' | %93
 [g'b'd'']e' [gbd']e[gbd']e' [g'b'd'']e' | [e'a'b']_c' [eab]_c[eab]c' [e'a'b']c'!8va)! | %95
 [d'g']b [dg]B[dg]b [d'g']b |[M:2/2]!f! [gc']e[Gc]E [fb]d[FB]D | %97
 [be']g[Be]G!8va(! [bd'f']f[d'f'b']b | [c'e'g']b[ceg]B [bd'f']f[d'f'b']b | %99
 [d'e'g']c'[deg]c [bc'e']g[Bce]G!8va)! | [c'e'f']a[cef]A [fac']e[FAc]E | %101
 [FAB]D[ABd]F [Bdf]A[dfb]B |"_cresc." [be']g[Be]G!8va(! [bd'f']f[d'f'b']b | %103
 [c'e'g']b[ceg]B [bd'f']f[d'f'b']b!8va)! |!mf! [GAc]"_cresc."F[Bde]G [cdf]A[dfa]c | %105
 [deg]=B[ega]c [gac']f[c'd'f']a |!8va(! [e'a'][bb'][e'a'][bb'] [e'a'][bb'][e'a'][bb'] | %107
"_poco  a  poco  più  cresc.""_cresc." [e'a'][bb'][e'a'][bb'] [e'a'][bb'][e'a'][bb'] | %108
 [e'f'][bb'][e'f'][bb'] [e'f'][bb'][e'f'][bb'] | [e'f'][bb'][e'f'][bb'] [e'f'][bb'][e'f'][bb'] | %110
 a''/g''/f''/e''/ d''/c''/b'/a'/ g'/f'/e'/d'/ c'/b/a/g/!8va)! | %111
 f/e/d/c/ B/A/G/F/ E/D/C/B,/ A,/G,/F,/E,/ | %112
[K:bass] D,/C,/B,,/A,,/ G,,/F,,/E,,/D,,/ C,,/B,,,/A,,,/G,,,/ F,,,/E,,,/D,,,/!fermata!C,,,/ || %113
[M:2/2][K:treble][Q:1/4=208]"^Meno mosso, sempre maestoso"!ff!"_sempre legato"!8va(! (3[egbe']4!8va)! [B,E]4!8va(! [ee']4!8va)! | %114
"_segue" (3[B,E]4!8va(! [egbe']4!8va)! [B,E]4 |!8va(! (3[fbd'f']4!8va)! [DF]4!8va(! [ff']4!8va)! | %116
 (3[DF]4!8va(! [fbd'f']4!8va)! [DF]4 |!8va(! (3[gbe'g']4!8va)! [GBe]4!8va(! [gg']4!8va)! | %118
!8va(! (3[egc'e']4!8va)! [EGc]4!8va(! [gg']4 | (3[fbd'f']4!8va)! [B,D]4 [DF]4 | %120
 (3[FB]4 [Bd]4 [df]4 | [Geg]4 [Beb]4 | [FBf]4 [EBe]4 | (3[DBd]4 [B,D]4 [DG]4 | %124
 (3[FB]4 [Bd]4 [df]4 | [Geg]4 [Beb]4 | [FBf]4 [EBe]4 | (3[DBd]4 [B,D]4 [DG]4 | %128
 (3[FAB]4 [ABd]4 [Bdf]4 | (3[eae']4 [E,A,E]4 [eae']4 | [dad']4 [Beb]4 | %131
 (3[cec']4 [E,A,E]4 [cec']4 | [Aea]4 [cec']4 | [Beb]4 [B,EB]4 | [ABa]4 [GBg]4 | %135
!mf! (3[Fcef]4 [Fcef]4 [Fcef]4 | (3[Fcef]4 [Fcef]4 [Fcef]4 | (3[GBdg]4 [GBdg]4 [GBdg]4 | %138
 (3[GBeg]4 [GBeg]4 [GBeg]4 | (3[B_dgb]4 [Bdgb]4 [Bdgb]4 | (3[A_cea]4 [Acea]4 [Acea]4 | %141
 (3[Aea]4 [Aea]4 [Aea]4 | (3[A__ea]4 [Aea]4 [Aea]4 |"_cresc." (3[A_da]4 [Ada]4 [Ada]4 | %144
 (3[A_da]4 [Ada]4 [Ada]4 | (3[_G_d_g]4 [Gdg]4 [Gdg]4 | (3[Fcf]4 [Fcf]4 [Fef]4 | %147
!f! (3[fbe'f']4 [FBef]4 [fbe'f']4 | (3[FAef]4 [fae'f']4 [FAef]4 | (3[fbe'f']4 [FBef]4 [fbe'f']4 | %150
 (3[F=Bef]4 [f=be'f']4 [FBef]4 |"_cresc." (3[fbe'f']4 [FBef]4 [fbe'f']4 | %152
 (3[F=Aef]4 [f=ae'f']4 [FAef]4 | (3[fbe'f']4 [FBef]4 [fbe'f']4 | (3[Fcef]4 [fc'e'f']4 [Fcef]4 | %155
[Q:1/4=208]"_poco" (3:2:2[ge'g']8[Q:1/4=199]"_a" [Geg]4-[Q:1/4=203]"_-" | %156
[Q:1/4=194]"_-" (3:2:2[Geg]4[Q:1/4=190]"_poco" [G,EG]8[Q:1/4=185]"_-" | %157
[Q:1/4=181]"_rallent." [_CE_G_c]4[Q:1/4=174]"_-" [_DGB_d]4 | %158
[Q:1/4=167]"_-" (3:2:2[=ge'=g']8[Q:1/4=158]"_-" [=Geg]4-[Q:1/4=162]"_-" | %159
[Q:1/4=153]"_-" (3:2:2[Geg]4[Q:1/4=149]"_-" [G,EG]8[Q:1/4=144]"_-" | %160
[Q:1/4=140]"_-" [CEGc]4[Q:1/4=133]"_-" [DFBd]4 || %161
[M:2/2]!ff![Q:1/4=126]"^Grave, sempre allargando" !fermata![EGBe]8 | !fermata![FBdf]8 | [GBeg]8 | %164
 [EGce]4 [Gceg]4 | [FBdf]8 | !^![B,B]8 |{/!fermata![CE]} !fermata![Acea]8 | %168
{/!fermata![DG]} !fermata![Bdgb]8 |!8va(! [gbe'g']4!8va)! [EGB]4 |!8va(! [gbe'g']4!8va)! [EGB]4 | %171
 [E,E]8- | [E,E]8 | E,6 !fermata!z2 |] %174
V:2
{/G,,-} [G,,B,,E,G,]8 |{/F,,-} [F,,B,,D,F,]8 |{/E,,-} [E,,G,,B,,E,]4{/C,,-} [C,,E,,G,,C,]4 | %3
{/D,,-} [D,,F,,B,,D,]4 B,,4 |({/E,,-} [E,,E,]4 [D,,D,]2 [C,,C,]2) | [B,,,F,,B,,]4 [G,,,E,,G,,]4 | %6
({/E,,-} [E,,E,]4 [D,,D,]2 [C,,C,]2) | [B,,,F,,B,,]4 [G,,,E,,G,,]4 |{/G,,-} [G,,B,,E,G,]8 | %9
{/F,,-} [F,,B,,D,F,]8 |{/E,,-} [E,,G,,B,,E,]4{/C,,-} [C,,E,,G,,C,]4 |{/D,,-} [D,,F,,B,,D,]4 B,,4 | %12
 [C,C]2 [C,C]2 ([B,,B,]2 [G,,G,]2 | [A,,A,]2) [A,,A,]2 [F,,F,]2 [A,,A,]2 | E,6 z2 | [F,A,C]8 | %16
 [D,F,B,D]4 [C,E,G,E]4 |{/A,,,} [C,C]2 [C,C]2 [B,,B,]2 [A,,A,]2 | ([G,,G,]4 [F,,F,]2 [E,,E,]2) | %19
 [A,,A,]8 | [G,,G,]8 | [G,,B,,E,G,]8 | [F,,B,,D,F,]8 | [E,,G,,B,,E,]4 [C,,E,,G,,C,]4 | %24
 [D,,F,,B,,D,]4 [B,,,B,,]4 | ([G,,E,G,]4 [D,,D,]2 [C,,C,]2) | [B,,,G,,B,,]4 [G,,,E,,G,,]4 | %27
 ([G,,E,G,]4 [D,,D,]2 [C,,C,]2) | [B,,,G,,B,,]4 [D,,B,,D,]4 | [A,,E,]8 | ([A,,E,]4 [_C,A,]4 | %31
 [_D,A,]4 [_C,_C]4 | [_F,_C]8 | _C8) | ([A,_C]4 [_G,_D]4 | [_F,_F]4 [F,F]4 | [__B,_F]4 [_F,F]4 | %37
 [__B,_F]8 | [_C__E]4 [__B,_F]4 | [_F,_F]8) | ([__B,_D]4 [_F,_C]4 | [_G,__B,]4 [_D,A,]4 | %42
 [E,_G,]8 | [_F,A,]8 | [A,,E,]8) | [A,,E,]4 [A,,E,]4 |{/E,,-} [E,,G,,B,,E,]8 | %47
{/F,,-} [F,,B,,D,F,]8 |({/G,,-} [G,,B,,E,G,]4{/E,,-} [E,,B,,E,]2{/G,,-} [G,,B,,G,]2 | %49
{/F,,-} [F,,B,,F,]4{/B,,,-)} [B,,,D,,B,,]4 | ([G,,B,,G,]2 [B,,E,B,]2 [F,,F,]2 [E,,E,]2 | %51
{/D,,-} [D,,B,,D,]4{/B,,,-)} [B,,,G,,B,,]4 | ([G,,G,]2 [B,,B,]2 [F,,F,]2 [E,,E,]2 | %53
{/D,,-} [D,,B,,D,]4{/B,,,-)} [B,,,G,,B,,]4 | %54
[K:treble][I:staff -1] [Ee][I:staff +1][Dd][Cc][B,B] [A,A][G,G][F,F][E,E] | %55
[K:bass] [D,D][C,C][B,,B,][A,,A,] [G,,G,][F,,F,][E,,E,][D,,D,] | %56
 [C,,C,][B,,,B,,][A,,,A,,][G,,,G,,] [F,,,F,,][E,,,E,,][D,,,D,,][C,,,C,,] | %57
 [D,,,D,,][E,,,E,,][F,,,F,,][G,,,G,,] [=A,,,=A,,][B,,,B,,][C,,C,][D,,D,] | %58
 [E,,E,][F,,F,][G,,G,][A,,A,] [B,,B,][C,C][D,D][B,,B,] | %59
 [A,,A,][G,,G,][F,,F,][E,,E,] [D,,D,][C,,C,][B,,,B,,][A,,,A,,] | %60
 [G,,,G,,][F,,,F,,][E,,,E,,][D,,,D,,] [E,,,E,,][=E,,,=E,,][F,,,F,,][G,,,G,,] | %61
 [A,,,A,,][B,,,B,,][C,,C,][D,,D,] [E,,E,][F,,F,][G,,G,][A,,A,] | %62
 [B,,B,][C,C][D,D][E,E][K:treble] [F,F][G,G][A,A][B,B] | [E,B,]8 | ([E,B,]4 [_G,E]4 | %65
 [A,E]4 [_G,_G]4 | [_C_G]8 | _G8) | ([E_G]4 [_DA]4 | [_C_c]4 [Cc]4 | [_F_c]4 [_Cc]4 | [_F_c]8 | %72
 [_G__B]4 [_F_c]4 | [_C_c]8) | ([_FA]4 [_C_G]4 | [_D_F]4 [A,E]4 | [B,_D]8 | [_CE]8 | [E,B,]8) | %79
 [E,B,]4 [E,B,]4 |[K:bass] !^!_C8 | !^!A,8 | !^!_C8 | !^!A,8 | [F,_CE]8 | [_F,A,E]8 | [=F,_CE]8 | %87
 [_F,A,E]8 |[M:2/2] [F,_CE]8 | [_F,A,E]8 | [F,_CE]8 | [_F,A,E]8 | E8 | E8 | E8 | E8 |[M:2/2] E8 | %97
 E8 | E8 | E8 | E8 | B,,,8 | E8 | E8 | E4 z4 | E4 z4 |[K:treble] [B,EFB]6- [B,EFB] z | %107
 [B,EFB]6- [B,EFB] z | [B,EFB]6- [B,EFB] z | [B,EFB]6- [B,EFB] z | %110
 a'/g'/f'/e'/ d'/c'/b/a/ g/f/e/d/ c/B/A/G/ | %111
 F/E/D/C/[K:bass] B,/A,/G,/F,/ E,/D,/C,/B,,/ A,,/G,,/F,,/E,,/ | %112
 D,,/C,,/B,,,/A,,,/ G,,,/F,,,/E,,,/D,,,/ C,,,/ z/ z !fermata!z2 || %113
[M:2/2] (3[G,,,B,,,E,,G,,]4 [E,G,]4 [G,,,G,,]4 | (3[E,G,]4 [G,,,B,,,E,,G,,]4 [E,G,]4 | %115
 (3[F,,,A,,,D,,F,,]4 [D,B,]4 [F,,,F,,]4 | (3[D,B,]4 [F,,,B,,,D,,F,,]4 [D,B,]4 | %117
 (3[E,,,G,,,B,,,E,,]4 [G,B,E]4 [E,,,E,,]4 | (3[C,,E,,G,,C,]4 [E,G,C]4 [E,,E,]4 | %119
 (3[D,,F,,B,,D,]4 [D,F,]4 [F,B,]4 |[K:treble] (3[B,D]4 [DF]4 [FB]4 | %121
[K:bass] [E,,B,,E,]4 [G,,E,G,]4 | [D,,G,,D,]4 [C,,G,,C,]4 | (3[B,,,G,,B,,]4 [D,G,]4 [G,B,]4 | %124
[K:treble] (3[B,D]4 [DF]4 [FB]4 |[K:bass] [E,,B,,E,]4 [G,,E,G,]4 | [D,,G,,D,]4 [C,,G,,C,]4 | %127
 (3[B,,,G,,B,,]4 [D,G,]4 [G,B,]4 | (3[A,B,D]4[K:treble] [B,DF]4 [DFA]4 | %129
 (3[CAc]4[K:bass] [C,,A,,C,]4 [C,A,C]4 | [B,,E,B,]4 [G,,E,G,]4 | %131
 (3[A,,E,A,]4 [C,,A,,C,]4 [A,,E,A,]4 | [F,,C,F,]4 [A,,C,A,]4 | [G,,E,G,]4 [G,,,E,,G,,]4 | %134
 [F,,B,,F,]4 [E,,B,,E,]4 | (3[A,,,A,,]4 [A,,A,]4 [A,,,A,,]4 | (3[A,,A,]4 [A,,,A,,]4 [A,,A,]4 | %137
 (3[B,,,B,,]4 [B,,B,]4 [B,,,B,,]4 | (3[B,,B,]4 [B,,,B,,]4 [B,,B,]4 | %139
 (3[B,,,B,,]4 [B,,B,]4 [B,,,B,,]4 | (3[=B,,=B,]4 [=B,,,B,,]4 [B,,B,]4 | %141
 (3[=B,,,=B,,]4 [B,,=B,]4 [B,,,B,,]4 | (3[B,,B,]4 [B,,,B,,]4 [B,,B,]4 | %143
 (3[__B,,,__B,,]4 [B,,__B,]4 [B,,,B,,]4 | (3[__B,,__B,]4 [__B,,,B,,]4 [B,,B,]4 | %145
 (3[=A,,,=A,,]4 [A,,=A,]4 [A,,,A,,]4 | (3[=A,,=A,]4 [=A,,,A,,]4 [A,,A,]4 | %147
 (3[B,,,B,,]4 [B,,B,]4 [B,,,B,,]4 | (3[=B,,=B,]4 [=B,,,B,,]4 [B,,B,]4 | %149
 (3[B,,,B,,]4 [B,,B,]4 [B,,,B,,]4 | (3[=A,,=A,]4 [=A,,,A,,]4 [A,,A,]4 | %151
 (3[B,,,B,,]4 [B,,B,]4 [B,,,B,,]4 | (3[C,C]4 [C,,C,]4 [C,C]4 | (3[B,,,B,,]4 [B,,B,]4 [B,,,B,,]4 | %154
 (3[=A,,=A,]4 [=A,,,A,,]4 [A,,A,]4 | (3[B,,,B,,]4 [D,D]4 [E,E]4 | (3[D,,D,]4 [E,,E,]4 [B,,,B,,]4 | %157
 [_C,E,_G,]4 [_G,,_D,G,]4 | (3[B,,,B,,]4 [=D,=D]4 [E,E]4 | (3[D,,D,]4 [E,,E,]4 [B,,,B,,]4 | %160
 [C,E,G,]4 [B,,F,B,]4 ||[M:2/2] !fermata![G,,B,,E,G,]8 | !fermata![F,,B,,D,F,]8 | [E,,G,,B,,E,]8 | %164
 [C,,E,,G,,C,]4 [E,,G,,C,E,]4 | [D,,F,,B,,D,]8 | !^![B,,,B,,]8 | %167
{/!fermata![F,A,]} !fermata![F,,,F,,]8 |{/!fermata![G,B,]} !fermata![G,,,G,,]8 | %169
 [E,,,E,,]4 [G,B,]4 | [E,,,E,,]4 [G,B,]4 | !///-!E,,,4 E,,4 | !///-!E,,,4 E,,4 | %173
 [E,,,E,,]6 !fermata!z2 |] %174
V:3
 z8 | z8 | z8 | z8 | z8 | z8 | z8 | z8 | z8 | z8 | z8 | z8 | z8 | z8 | z8 | z8 | z8 | z8 | z8 | %19
 z8 | z8 | z8 | z8 | z8 | z8 | z8 | z8 | z8 | z8 | z8 | z8 | z8 | z8 | z8 | z8 | z8 | z8 | z8 | %38
 z8 | z8 | z8 | z8 | z8 | z8 | z8 | z8 | z8 | z8 | z8 | z8 | z8 | z8 | z8 | z8 | z8 | z8 | z8 | %57
 z8 | z8 | z8 | z8 | z8 | z8 | z8 | z8 | z8 | z8 | z8 | z8 | z8 | z8 | z8 | z8 | z8 | z8 | z8 | %76
 z8 | z8 | z8 | z8 | z8 | z8 | z8 | z8 | z8 | z8 | z8 | z8 |[M:2/2] z8 | z8 | z8 | z8 | z8 | z8 | %94
 z8 | z8 |[M:2/2] z8 | z8 | z8 | z8 | z8 | z8 | z8 | z8 | z8 | z8 | z4 [E,,,E,,]4 | z4 [E,,,E,,]4 | %108
 z4 [E,,,E,,]4 | z4 [E,,,E,,]4 | z8 | z8 | z8 ||[M:2/2] z8 | z8 | z8 | z8 | z8 | z8 | z8 | z8 | %121
 z8 | z8 | z8 | z8 | z8 | z8 | z8 | z8 | z8 | z8 | z8 | z8 | z8 | z8 | z8 | z8 | z8 | z8 | z8 | %140
 z8 | z8 | z8 | z8 | z8 | z8 | z8 | z8 | z8 | z8 | z8 | z8 | z8 | z8 | z8 | z8 | z8 | z8 | z8 | %159
 z8 | z8 ||[M:2/2] z8 | z8 | z8 | z8 | z8 | z8 | z8 | z8 | z8 | z8 | z8 | z8 | z8 |] %174
V:4
 x8 | x8 | x8 | x8 | x4 B4 | x8 | x4 B4 | x8 | x8 | x8 | x8 | x8 | a4 a4 | e8 | %14
 ([Bb]4 [Aa]2 [Gg]2) | x8 | x8 | x4 A4 | E6 x2 | x8 | x8 |{/E,-} E,8 |{/E,-} E,8 |{/E,-} E,8 | x8 | %25
{/E,-} E,8- | E,8 |{/E,-} E,8- | E,8 | x8 | x8 | x8 | x8 | x8 | x8 | x8 | x8 | x8 | x8 | x8 | x8 | %41
 x8 | x8 | x8 | x8 | x8 |!8va(! x8!8va)! | x8 | x8 |[K:bass] x8 | x8 |[K:treble] x8 | x4!8va(! x4 | %53
 x4!8va)! x4 | x8 | x8 | x8 | x8 | [ac']4 [gb]4 | [ea]8 | x4 c4 | x8 | x8 | x8 | x8 | x8 | x8 | %67
 x8 | x8 | x8 | x8 | x8 | x8 | x8 | x8 | x8 | x8 | x8 | x8 | x8 | x8 | x8 | x8 | x8 | x8 | x8 | %86
 x8 | x8 |[M:2/2]!8va(! x8 | x8 | x8 | x8 | x8 | x8 | x8!8va)! | x8 |[M:2/2] x8 | x4!8va(! x4 | %98
 x8 | x8!8va)! | x8 | x8 | x4!8va(! x4 | x8!8va)! | x8 | x8 |!8va(! x8 | x8 | x8 | x8 | x8!8va)! | %111
 x8 |[K:bass] x8 ||[M:2/2][K:treble]!8va(! x8/3!8va)! x8/3!8va(! x8/3!8va)! | %114
 x8/3!8va(! x8/3!8va)! x8/3 |!8va(! x8/3!8va)! x8/3!8va(! x8/3!8va)! | x8/3!8va(! x8/3!8va)! x8/3 | %117
!8va(! x8/3!8va)! x8/3!8va(! x8/3!8va)! |!8va(! x8/3!8va)! x8/3!8va(! x8/3 | x8/3!8va)! x16/3 | %120
 x8 | x8 | x8 | x8 | x8 | x8 | x8 | x8 | x8 | x8 | x8 | x8 | x8 | x8 | x8 | x8 | x8 | x8 | x8 | %139
 x8 | x8 | x8 | x8 | x8 | x8 | x8 | x8 | x8 | x8 | x8 | x8 | x8 | x8 | x8 | x8 | x8 | x8 | x8 | %158
 x8 | x8 | x8 ||[M:2/2]{/E,-} E,8 |{/E,-} E,8 | x8 | x8 | x8 | x8 | x8 | x8 |!8va(! x4!8va)! x4 | %170
!8va(! x4!8va)! x4 | x8 | x8 | x8 |] %174
V:5
 x8 | x8 | x8 | x8 | B,,4 B,,4 | x8 | B,,4 B,,4 | x8 | x8 | x8 | x8 | x8 | A,4 E,4 | E,8 | %14
 ([G,,G,]4 [F,,F,]2 [E,,E,]2) | x8 | x8 | x4 E,4 | E,6 z2 | x8 | x8 |{/[E,,,E,,]-} [E,,,E,,]8 | %22
{/[E,,,E,,]-} [E,,,E,,]8 |{/[E,,,E,,]-} [E,,,E,,]8 | x8 |{/[E,,,E,,]-} [E,,,E,,]8- | [E,,,E,,]8 | %27
{/[E,,,E,,]-} [E,,,E,,]8- | [E,,,E,,]8 | x8 | x8 | x8 | x8 | x8 | x8 | x8 | x8 | x8 | x8 | x8 | %40
 x8 | x8 | x8 | x8 | x8 | x8 | x8 | x8 | x8 | x8 | x4 B,,4 | x8 | E,4 B,,4 | x8 |[K:treble] x8 | %55
[K:bass] x8 | x8 | x8 | x8 | x8 | x8 | x8 | x4[K:treble] x4 | x8 | x8 | x8 | x8 | x8 | x8 | x8 | %70
 x8 | x8 | x8 | x8 | x8 | x8 | x8 | x8 | x8 | x8 |[K:bass] z4!ped! A,,4 | z4!ped-up!!ped! _C,,4 | %82
 z4!ped-up! A,,4 | z4 _C,,4 | z4 A,,4 | z4 _C,,4 | z4 A,,4 | z4 _C,,4 |[M:2/2] z4 A,,4 | z4 _C,,4 | %90
 z4 A,,4 | z4 _C,,4 | z4 B,,,4 | z4 B,,,4 | z4 B,,,4 | z4 B,,,4 |[M:2/2] z4 B,,,4 | z4 B,,,4 | %98
 z4 B,,,4 | z4 B,,,4 | x8 | x8 | z4 B,,,4 | z4 B,,,4 | z4 B,,,4 | z4 B,,,4 |[K:treble] x8 | x8 | %108
 x8 | x8 | x8 | x2[K:bass] x6 | x8 ||[M:2/2] x8 | x8 | x8 | x8 | x8 | x8 | x8 |[K:treble] x8 | %121
[K:bass] x8 | x8 | x8 |[K:treble] x8 |[K:bass] x8 | x8 | x8 | x8/3[K:treble] x16/3 | %129
 x8/3[K:bass] x16/3 | x8 | x8 | x8 | x8 | x8 | x8 | x8 | x8 | x8 | x8 | x8 | x8 | x8 | x8 | x8 | %145
 x8 | x8 | x8 | x8 | x8 | x8 | x8 | x8 | x8 | x8 | x8 | x8 | x8 | x8 | x8 | x8 || %161
[M:2/2]{/[E,,,E,,]-} [E,,,E,,]8 |{/[E,,,E,,]-} [E,,,E,,]8 |{/[E,,,E,,]-} [E,,,E,,]8 | x8 | %165
{/[E,,,E,,]-} [E,,,E,,]8 |!ped! x8!ped-up! | x8 | x8 | x8 | x8 | x8 | x8 |!ped! x8!ped-up! |] %174
V:6
 x8 | x8 | x8 | x8 | x8 | x8 | x8 | x8 | x8 | x8 | x8 | x8 | x8 | x8 | x8 | x8 | x8 | x8 | x8 | %19
 x8 | x8 | x8 | x8 | x8 | x8 | x4 B4 | x8 | x4 B4 | x8 | x8 | x8 | x8 | x8 | x8 | x8 | x8 | x8 | %37
 x8 | x8 | x8 | x8 | x8 | x8 | x8 | x8 | x8 |!8va(! x8!8va)! | x8 | x8 |[K:bass] x8 | x8 | %51
[K:treble] x8 | x4!8va(! x4 | x4!8va)! x4 | x8 | x8 | x8 | x8 | x8 | x8 | x8 | x8 | x8 | x8 | x8 | %65
 x8 | x8 | x8 | x8 | x8 | x8 | x8 | x8 | x8 | x8 | x8 | x8 | x8 | x8 | x8 | x8 | x8 | x8 | x8 | %84
 x8 | x8 | x8 | x8 |[M:2/2]!8va(! x8 | x8 | x8 | x8 | x8 | x8 | x8!8va)! | x8 |[M:2/2] x8 | %97
 x4!8va(! x4 | x8 | x8!8va)! | x8 | x8 | x4!8va(! x4 | x8!8va)! | x8 | x8 |!8va(! x8 | x8 | x8 | %109
 x8 | x8!8va)! | x8 |[K:bass] x8 ||[M:2/2][K:treble]!8va(! x8/3!8va)! x8/3!8va(! x8/3!8va)! | %114
 x8/3!8va(! x8/3!8va)! x8/3 |!8va(! x8/3!8va)! x8/3!8va(! x8/3!8va)! | x8/3!8va(! x8/3!8va)! x8/3 | %117
!8va(! x8/3!8va)! x8/3!8va(! x8/3!8va)! |!8va(! x8/3!8va)! x8/3!8va(! x8/3 | x8/3!8va)! x16/3 | %120
 x8 | x8 | x8 | x8 | x8 | x8 | x8 | x8 | x8 | x8 | x8 | x8 | x8 | x8 | x8 | x8 | x8 | x8 | x8 | %139
 x8 | x8 | x8 | x8 | x8 | x8 | x8 | x8 | x8 | x8 | x8 | x8 | x8 | x8 | x8 | x8 | x8 | x8 | x8 | %158
 x8 | x8 | x8 ||[M:2/2] x8 | x8 | x8 | x8 | x8 | x8 | x8 | x8 |!8va(! x4!8va)! x4 | %170
!8va(! x4!8va)! x4 | x8 | x8 | x8 |] %174
V:7
 x8 | x8 | x8 | x8 | x8 | x8 | x8 | x8 | x8 | x8 | x8 | x8 | x8 | x8 | x8 | x8 | x8 | x8 | x8 | %19
 x8 | x8 | x8 | x8 | x8 | x8 | x4 B,,4 | x8 | x4 B,,4 | x8 | x8 | x8 | x8 | x8 | x8 | x8 | x8 | %36
 x8 | x8 | x8 | x8 | x8 | x8 | x8 | x8 | x8 | x8 | x8 | x8 | x8 | x8 | x8 | x8 | x8 | x8 | %54
[K:treble] x8 |[K:bass] x8 | x8 | x8 | x8 | x8 | x8 | x8 | x4[K:treble] x4 | x8 | x8 | x8 | x8 | %67
 x8 | x8 | x8 | x8 | x8 | x8 | x8 | x8 | x8 | x8 | x8 | x8 | x8 |[K:bass] x8 | x8 | x8 | x8 | x8 | %85
 x8 | x8 | x8 |[M:2/2] x8 | x8 | x8 | x8 | x8 | x8 | x8 | x8 |[M:2/2] x8 | x8 | x8 | x8 | x8 | x8 | %102
 x8 | x8 | x8 | x8 |[K:treble] x8 | x8 | x8 | x8 | x8 | x2[K:bass] x6 | x8 ||[M:2/2] x8 | x8 | x8 | %116
 x8 | x8 | x8 | x8 |[K:treble] x8 |[K:bass] x8 | x8 | x8 |[K:treble] x8 |[K:bass] x8 | x8 | x8 | %128
 x8/3[K:treble] x16/3 | x8/3[K:bass] x16/3 | x8 | x8 | x8 | x8 | x8 | x8 | x8 | x8 | x8 | x8 | x8 | %141
 x8 | x8 | x8 | x8 | x8 | x8 | x8 | x8 | x8 | x8 | x8 | x8 | x8 | x8 | x8 | x8 | x8 | x8 | x8 | %160
 x8 ||[M:2/2] x8 | x8 | x8 | x8 | x8 | x8 | x8 | x8 | x8 | x8 | x8 | x8 | x8 |] %174

